Origami/24x24/apps/preferences-desktop-wallpaper.svg

<svg width="24" height="24" version="1" xmlns="http://www.w3.org/2000/svg">
 <path d="m22 12-8 8h-11c-0.554 0-1-0.446-1-1v0.5c0 0.554 0.446 1 1 1h11l8-8v-0.5z" style="opacity:.2"/>
 <path d="m22 12v-7c0-0.554-0.446-1-1-1h-18c-0.554 0-1 0.446-1 1v14c0 0.554 0.446 1 1 1h11z" style="fill:#325f78"/>
 <path d="m20 12.906v-6.906h-16v12h10.909z" style="opacity:.2"/>
 <path d="m3 4c-0.554 0-1 0.446-1 1v0.5c0-0.554 0.446-1 1-1h18c0.554 0 1 0.446 1 1v-0.5c0-0.554-0.446-1-1-1h-18z" style="fill:#ffffff;opacity:.1"/>
 <path d="m22 12h-7c-0.5523 0-1 0.44772-1 1v7z" style="fill:#56839e"/>
 <path d="m15 12c-0.5523 0-1 0.44772-1 1v0.5c0-0.5523 0.44772-1 1-1h6.5l0.5-0.5h-7z" style="fill:#ffffff;opacity:.1"/>
</svg>

<svg xmlns="http://www.w3.org/2000/svg" width="24" height="24" version="1">
 <path style="opacity:0.2" d="M 22,12 14,20 3,20 C 2.446,20 2,19.554 2,19 l 0,0.5 c 0,0.554 0.446,1 1,1 l 11,0 8,-8 0,-0.5 z"/>
 <path style="fill:#325f78" d="M 22,12 22,5 C 22,4.446 21.554,4 21,4 L 3,4 C 2.446,4 2,4.446 2,5 l 0,14 c 0,0.554 0.446,1 1,1 l 11,0 z"/>
 <path style="opacity:0.2" d="M 20,12.906 20,6 4,6 4,18 14.909,18 Z"/>
 <path style="opacity:0.1;fill:#ffffff" d="M 3,4 C 2.446,4 2,4.446 2,5 l 0,0.5 c 0,-0.554 0.446,-1 1,-1 l 18,0 c 0.554,0 1,0.446 1,1 L 22,5 C 22,4.446 21.554,4 21,4 L 3,4 Z"/>
 <path style="fill:#56839e" d="m 22,12 -7,0 c -0.5523,0 -1,0.44772 -1,1 l 0,7 z"/>
 <path style="opacity:0.1;fill:#ffffff" d="m 15,12 c -0.5523,0 -1,0.44772 -1,1 l 0,0.5 c 0,-0.5523 0.44772,-1 1,-1 l 6.5,0 0.5,-0.5 -7,0 z"/>
</svg>
